public/images/mail.svg

<svg fill="none" height="24" viewBox="0 0 24 24" width="24" xmlns="http://www.w3.org/2000/svg"><path d="m23.1094 7.64062c-1.1719-.89062-2.1094-1.64062-7.6875-5.67187-.7969-.5625-2.3438-1.96875-3.4219-1.96875h-.0469c-1.0781 0-2.62498 1.40625-3.42185 1.96875-5.57813 4.03125-6.51563 4.73437-7.6875 5.67187-.5625.42188-.84375 1.07813-.84375 1.78126v12.32812c0 1.2656.984375 2.25 2.25 2.25h19.5c1.2188 0 2.25-.9844 2.25-2.2031v-12.37502c0-.70313-.3281-1.35938-.8906-1.78126zm-8.9063 9.60938c-.6562.5156-1.4531.75-2.2031.75-.7969 0-1.5938-.2344-2.25-.75l-6.75-5.2969v-2.15622c.98438-.79688 2.15625-1.6875 7.3125-5.4375.1406-.09376.3281-.23438.5156-.375.2344-.1875.75-.60938 1.1719-.84376.375.23438.8906.65626 1.125.84376.1875.14062.375.28124.5156.42187 5.1094 3.70313 6.3282 4.59375 7.3594 5.39063v2.15622z" fill="#a37a56"/></svg>

<svg width="24" height="24" viewBox="0 0 24 24" fill="none" xmlns="http://www.w3.org/2000/svg">
<path d="M23.1094 7.64062C21.9375 6.75 21 6 15.4219 1.96875C14.625 1.40625 13.0781 0 12 0H11.9531C10.875 0 9.32812 1.40625 8.53125 1.96875C2.95312 6 2.01562 6.70312 0.84375 7.64062C0.28125 8.0625 0 8.71875 0 9.42188V21.75C0 23.0156 0.984375 24 2.25 24H21.75C22.9688 24 24 23.0156 24 21.7969V9.42188C24 8.71875 23.6719 8.0625 23.1094 7.64062ZM14.2031 17.25C13.5469 17.7656 12.75 18 12 18C11.2031 18 10.4062 17.7656 9.75 17.25L3 11.9531V9.79688C3.98438 9 5.15625 8.10938 10.3125 4.35938C10.4531 4.26562 10.6406 4.125 10.8281 3.98438C11.0625 3.79688 11.5781 3.375 12 3.14062C12.375 3.375 12.8906 3.79688 13.125 3.98438C13.3125 4.125 13.5 4.26562 13.6406 4.40625C18.75 8.10938 19.9688 9 21 9.79688V11.9531L14.2031 17.25Z" fill="#A37A56"/>
</svg>
